icons/lines/shield-search.svg

<svg xmlns="http://www.w3.org/2000/svg" width="24" height="24" viewBox="0 0 24 24" fill="none" stroke="currentColor" stroke-width="2" stroke-linecap="round" stroke-linejoin="round" >
  <path d="M20.5902 10.5501V7.12006C20.5902 5.89006 19.6502 4.53006 18.5002 4.10006L13.5102 2.23006C12.6802 1.92006 11.3202 1.92006 10.4902 2.23006L5.50016 4.11006C4.35016 4.54006 3.41016 5.90006 3.41016 7.12006V14.5501C3.41016 15.7301 4.19016 17.2801 5.14016 17.9901L9.44016 21.2001C10.1402 21.7401 11.0702 22.0001 12.0002 22.0001"/>
  <path d="M16 20C18.2091 20 20 18.2091 20 16C20 13.7909 18.2091 12 16 12C13.7909 12 12 13.7909 12 16C12 18.2091 13.7909 20 16 20Z"/>
  <path d="M20.9955 21H21.0045"/>
  </svg>

<svg xmlns="http://www.w3.org/2000/svg" width="24" height="24" viewBox="0 0 24 24" fill="none" stroke="currentColor" stroke-width="2" stroke-linecap="round" stroke-linejoin="round">
  <path d="M20.59 10.55V7.12c0-1.23-.94-2.59-2.09-3.02l-4.99-1.87c-.83-.31-2.19-.31-3.02 0L5.5 4.11c-1.15.43-2.09 1.79-2.09 3.01v7.43c0 1.18.78 2.73 1.73 3.44l4.3 3.21c.7.54 1.63.8 2.56.8" />
  <path d="M20.996 21h.01" />
  <circle cx="16" cy="16" r="4" />
</svg>
